X: 657
T: Planxty George Brabazon
C:O'Carolan
B:O'Neill's 657
Z: 1997 by John Chambers <jc@trillian.mit.edu>
N:"Moderate"
M:C
L:1/8
K:G
ge \
| d2G2 (cB)AG | d2G2 (cB)AG | e2A2 (AB)cd | e2A2 (AB)cd |
| (ed)cB g2fe | (ed)cB (cB)AG | (BA)GE (DE)GA | B2G2 G2 ||
|| (ga) \
| b2(gb) a2(fa) | g2(eg) (ed)cB | e2A2 (AB)cd | e2A2 A2 (ga) |
| b2(gb) a2(fa) | g2(eg) (ed)cB | (cB)AG (DE)GA | B2G2 G2 |]


